Numix/32/mimetypes/image-x-sigma-x3f.svg

<?xml version="1.0" encoding="UTF-8" standalone="no"?>
<svg
   xmlns:dc="http://purl.org/dc/elements/1.1/"
   xmlns:cc="http://creativecommons.org/ns#"
   xmlns:rdf="http://www.w3.org/1999/02/22-rdf-syntax-ns#"
   xmlns:svg="http://www.w3.org/2000/svg"
   xmlns="http://www.w3.org/2000/svg"
   xmlns:sodipodi="http://sodipodi.sourceforge.net/DTD/sodipodi-0.dtd"
   xmlns:inkscape="http://www.inkscape.org/namespaces/inkscape"
   width="32"
   height="32"
   viewBox="0 0 32 32"
   id="svg2"
   version="1.1"
   inkscape:version="0.91 r13725"
   sodipodi:docname="image-x-sigma-x3f.svg">
  <metadata
     id="metadata16">
    <rdf:RDF>
      <cc:Work
         rdf:about="">
        <dc:format>image/svg+xml</dc:format>
        <dc:type
           rdf:resource="http://purl.org/dc/dcmitype/StillImage" />
        <dc:title />
      </cc:Work>
    </rdf:RDF>
  </metadata>
  <defs
     id="defs14">
    <clipPath
       id="clipPath-258929573">
      <g
         transform="translate(0,-1004.3622)"
         id="g17">
        <path
           inkscape:connector-curvature="0"
           d="m -24,13 c 0,1.105 -0.672,2 -1.5,2 -0.828,0 -1.5,-0.895 -1.5,-2 0,-1.105 0.672,-2 1.5,-2 0.828,0 1.5,0.895 1.5,2 z"
           transform="matrix(15.333333,0,0,11.5,414.99999,878.8622)"
           style="fill:#1890d0"
           id="path19" />
      </g>
    </clipPath>
    <clipPath
       id="clipPath-258929573-9">
      <g
         transform="translate(0,-1004.3622)"
         id="g17-8">
        <path
           inkscape:connector-curvature="0"
           d="m -24,13 c 0,1.105 -0.672,2 -1.5,2 -0.828,0 -1.5,-0.895 -1.5,-2 0,-1.105 0.672,-2 1.5,-2 0.828,0 1.5,0.895 1.5,2 z"
           transform="matrix(15.333333,0,0,11.5,414.99999,878.8622)"
           style="fill:#1890d0"
           id="path19-0" />
      </g>
    </clipPath>
  </defs>
  <sodipodi:namedview
     pagecolor="#ffffff"
     bordercolor="#666666"
     borderopacity="1"
     objecttolerance="10"
     gridtolerance="10"
     guidetolerance="10"
     inkscape:pageopacity="0"
     inkscape:pageshadow="2"
     inkscape:window-width="1920"
     inkscape:window-height="1013"
     id="namedview12"
     showgrid="true"
     inkscape:zoom="22.627417"
     inkscape:cx="10.955556"
     inkscape:cy="12.803954"
     inkscape:window-x="0"
     inkscape:window-y="27"
     inkscape:window-maximized="1"
     inkscape:current-layer="svg2">
    <inkscape:grid
       type="xygrid"
       id="grid3004" />
  </sodipodi:namedview>
  <path
     style="fill:#38a34e;fill-opacity:1"
     d="M 5.335888,2.97e-4 C 4.648414,3.12e-4 4,0.676788 4,1.394031 L 4,30.606268 C 4,31.282757 4.687474,32 5.335888,32 l 21.327332,0 c 0.648414,0 1.335888,-0.717243 1.335888,-1.393732 L 28,8.9999999 19,0 z"
     id="path4-1"
     inkscape:connector-curvature="0"
     sodipodi:nodetypes="ssssssccs" />
  <path
     style="fill:#000000;fill-opacity:0.19599998"
     d="M 21,8.9999999 28,16 28,8.9999999 z"
     id="path6-4"
     inkscape:connector-curvature="0"
     sodipodi:nodetypes="cccc" />
  <path
     style="fill:#ffffff;fill-opacity:0.39200003"
     d="m 19.000306,2.97e-4 8.991594,8.9997029 -7.613262,0 c -0.672951,0 -1.378332,-0.7134896 -1.378332,-1.3864402 z"
     id="path8-6"
     inkscape:connector-curvature="0"
     sodipodi:nodetypes="ccssc" />
  <path
     style="fill:#000000;fill-opacity:0.19599998"
     d="m 4,24 0,6.667969 C 4,31.316407 4.6875,32 5.3320311,32 L 26.667969,32 C 27.3125,32 28,31.316407 28,30.667969 L 28,24 Z"
     id="path3011"
     inkscape:connector-curvature="0" />
  <path
     inkscape:connector-curvature="0"
     id="path4543"
     style="font-style:normal;font-variant:normal;font-weight:bold;font-stretch:normal;font-size:medium;line-height:125%;font-family:'Ubuntu Mono';-inkscape-font-specification:'Ubuntu Mono, Bold';text-align:start;letter-spacing:0px;word-spacing:0px;writing-mode:lr-tb;text-anchor:start;fill:#ffffff;fill-opacity:1;stroke:none;stroke-width:1px;stroke-linecap:butt;stroke-linejoin:miter;stroke-opacity:1"
     d="M 11.608787,31 C 11.276491,30.190685 10.867982,29.729717 10.5,29 10.082203,29.782194 9.7491556,30.233355 9.391214,31 L 8,31 c 0.5029853,-1.096609 1.4372322,-2.062499 2,-3 l -2,-2.999967 1.5,0 1,1.999967 1,-1.999967 1.5,0 L 11,28 c 0.694071,1.002393 1.506979,1.967965 2,3 z"
     sodipodi:nodetypes="ccccccccccccc" />
  <path
     inkscape:connector-curvature="0"
     id="path4545"
     style="font-style:normal;font-variant:normal;font-weight:bold;font-stretch:normal;font-size:medium;line-height:125%;font-family:'Ubuntu Mono';-inkscape-font-specification:'Ubuntu Mono, Bold';text-align:start;letter-spacing:0px;word-spacing:0px;writing-mode:lr-tb;text-anchor:start;fill:#ffffff;fill-opacity:1;stroke:none;stroke-width:1px;stroke-linecap:butt;stroke-linejoin:miter;stroke-opacity:1"
     d="M 15.678049,31 C 15.528456,31 15.369106,30.987617 15.2,30.96285 15.037399,30.944273 14.878049,30.919507 14.721951,30.88855 14.572358,30.857587 14.43252,30.823532 14.302439,30.786383 14.172358,30.74923 14.071545,30.715175 14,30.684216 l 0.234146,-0.956658 c 0.149594,0.06192 0.341464,0.126936 0.57561,0.195047 0.240651,0.06811 0.52683,0.102167 0.858537,0.102167 0.409756,0 0.695935,-0.08359 0.858536,-0.250774 0.2133,-0.233474 0.342047,-0.343486 0.253659,-1.005485 C 16.740334,28.467776 16.653659,28.254581 16.4,28.136933 16.146341,28.013095 15.82439,28 15.434146,28 L 15,28 l 0,-1 0.512195,0 0.923159,-2.04e-4 C 16.748106,27 16.930112,26.900187 16.988951,26.491026 17,26.214208 16.775329,26.073474 16.666369,26 c -0.201896,-0.01736 -0.637102,-0.02477 -0.871248,-0.02477 -0.227642,0 -0.455284,0.03715 -0.682927,0.111456 -0.221138,0.06811 -0.413008,0.154799 -0.57561,0.260062 L 14.107316,25.51083 c 0.17561,-0.111455 0.406504,-0.222911 0.692683,-0.334366 C 15.092682,25.058824 15.421137,25 15.785365,25 c 0,0 1.335151,0 1.848219,0.387057 C 17.917111,25.615938 18,26 18,26 c 0,0 -1e-6,0.81001 -0.08839,0.977903 -0.116907,0.222058 -0.669336,0.285967 -0.896979,0.397421 0.312195,0.12384 0.552846,0.306503 0.721951,0.547989 0.17561,0.241486 0.263415,0.529412 0.263415,0.863779 0,0.266253 -0.04553,0.894028 -0.136585,1.116939 -0.09106,0.222911 -0.230895,0.417957 -0.419513,0.58514 -0.188617,0.160991 -0.429268,0.287926 -0.721951,0.380806 C 16.429268,30.956659 16.081301,31 15.678049,31 Z"
     sodipodi:nodetypes="sccccccscscsccccccscccccccsccssccs" />
  <path
     inkscape:connector-curvature="0"
     id="path4174"
     style="font-style:normal;font-variant:normal;font-weight:bold;font-stretch:normal;font-size:9.0232296px;line-height:125%;font-family:'Ubuntu Mono';-inkscape-font-specification:'Ubuntu Mono, Bold';text-align:start;letter-spacing:0px;word-spacing:0px;writing-mode:lr-tb;text-anchor:start;fill:#ffffff;fill-opacity:1;stroke:none;stroke-width:1px;stroke-linecap:butt;stroke-linejoin:miter;stroke-opacity:1"
     d="m 19,31 0,-6 4,0 0,0.988692 -3,0 0,1.016962 2,0 0,0.988692 -2,0 L 20,31 Z"
     sodipodi:nodetypes="ccccccccccc" />
  <g
     transform="matrix(0.40082111,0,0,0.40065477,6.3788233,6.3732701)"
     style="fill:#ffffff;fill-opacity:1"
     id="g59">
    <g
       id="g61"
       clip-path="url(#clipPath-258929573-9)"
       style="fill:#ffffff">
      <!-- color: #3d3d3d -->
      <g
         id="g63"
         style="fill:#ffffff">
        <path
           style="fill:#ffffff;fill-rule:nonzero;stroke:none"
           d="m 16.089844,10.007812 c -1.647385,0.02317 -3.248499,0.700118 -4.390625,1.935547 l 2.873047,2.886719 1.517578,-4.822266 z m 1.470703,0.31836 -1.179688,3.759766 3.197266,-0.53711 1.808594,-0.351562 c -0.806312,-1.417159 -2.181368,-2.470118 -3.826172,-2.871094 z m -6.859375,2.740234 c -0.7320031,1.377377 -0.9077695,3.006727 -0.427734,4.53711 l 4.134765,-0.675782 -0.652344,-0.792968 -3.054687,-3.06836 z m 11.113281,1.626953 -3.806641,0.638672 3.181641,3.779297 c 0.768227,-1.324374 1.009221,-2.907602 0.625,-4.417969 z m -4.236328,2.458985 -1.816406,4.333984 -0.205078,0.507813 c 1.698131,0.0725 3.373185,-0.573608 4.58789,-1.794922 l -2.566406,-3.046875 z m -2.097656,1.121094 -4.714844,0.769531 c 0.763067,1.193862 1.939817,2.098057 3.333984,2.523437 l 1.38086,-3.292968 z"
           transform="matrix(2.4970249,0,0,2.4976141,-15.947859,-15.944531)"
           id="path65"
           inkscape:connector-curvature="0" />
      </g>
    </g>
  </g>
</svg>

<svg xmlns="http://www.w3.org/2000/svg" viewBox="0 0 32 32">
 <defs>
  
 </defs>
 <path d="m 5.336 0 c -0.687 0 -1.336 0.676 -1.336 1.394 l 0 29.21 c 0 0.676 0.687 1.394 1.336 1.394 l 21.327 0 c 0.648 0 1.336 -0.717 1.336 -1.394 l 0.001 -21.606 -9 -9 z" style="fill:#38a34e;fill-opacity:1"/>
 <path d="m 21 9 7 7 0 -7 z" style="fill:#000;fill-opacity:0.196"/>
 <path d="m 19 0 8.992 9 -7.613 0 c -0.673 0 -1.378 -0.713 -1.378 -1.386 z" style="fill:#fff;fill-opacity:0.392"/>
 <path d="m 4 24 0 6.668 c 0 0.648 0.688 1.332 1.332 1.332 l 21.336 0 c 0.645 0 1.332 -0.684 1.332 -1.332 l 0 -6.668" style="fill:#000;fill-opacity:0.196"/>
 <path d="m 11.609 31 c -0.332 -0.809 -0.741 -1.27 -1.109 -2 -0.418 0.782 -0.751 1.233 -1.109 2 l -1.391 0 c 0.503 -1.097 1.437 -2.062 2 -3 l -2 -3 1.5 0 1 2 1 -2 1.5 0 l -2 3 c 0.694 1 1.507 1.968 2 3 z" style="fill:#fff;fill-opacity:1;stroke:none"/>
 <path d="m 15.678 31 c -0.15 0 -0.309 -0.012 -0.478 -0.037 -0.163 -0.019 -0.322 -0.043 -0.478 -0.074 -0.15 -0.031 -0.289 -0.065 -0.42 -0.102 -0.13 -0.037 -0.231 -0.071 -0.302 -0.102 l 0.234 -0.957 c 0.15 0.062 0.341 0.127 0.576 0.195 0.241 0.068 0.527 0.102 0.859 0.102 0.41 0 0.696 -0.084 0.859 -0.251 0.213 -0.233 0.342 -0.343 0.254 -1.01 c -0.04 -0.301 -0.127 -0.514 -0.38 -0.632 -0.254 -0.124 -0.576 -0.137 -0.966 -0.137 l -0.434 0 l 0 -1 0.512 0 0.923 0 c 0.313 0 0.495 -0.1 0.554 -0.509 0.011 -0.277 -0.214 -0.418 -0.323 -0.491 c -0.202 -0.017 -0.637 -0.025 -0.871 -0.025 -0.228 0 -0.455 0.037 -0.683 0.111 -0.221 0.068 -0.413 0.155 -0.576 0.26 l -0.429 -0.836 c 0.176 -0.111 0.407 -0.223 0.693 -0.334 c 0.293 -0.118 0.621 -0.176 0.985 -0.176 c 0 0 1.335 0 1.848 0.387 c 0.284 0.229 0.366 0.613 0.366 0.613 c 0 0 0 0.81 -0.088 0.978 -0.117 0.222 -0.669 0.286 -0.897 0.397 0.312 0.124 0.553 0.307 0.722 0.548 0.176 0.241 0.263 0.529 0.263 0.864 0 0.266 -0.046 0.894 -0.137 1.117 -0.091 0.223 -0.231 0.418 -0.42 0.585 -0.189 0.161 -0.429 0.288 -0.722 0.381 c -0.293 0.087 -0.641 0.13 -1.044 0.13" style="fill:#fff;fill-opacity:1;stroke:none"/>
 <path d="m 19 31 0 -6 4 0 0 0.989 -3 0 0 1.017 2 0 0 0.989 -2 0 l 0 3.01" style="fill:#fff;fill-opacity:1;stroke:none"/>
 <g transform="matrix(0.40082111,0,0,0.40065477,6.3788233,6.3732701)" style="fill:#fff;fill-opacity:1">
  <g style="clip-path:url(#clipPath-258929573-9);fill:#fff">
   <!-- color: #3d3d3d -->
   <g style="fill:#fff">
    <path d="m 16.09 10.01 c -1.647 0.023 -3.248 0.7 -4.391 1.936 l 2.873 2.887 1.518 -4.822 z m 1.471 0.318 -1.18 3.76 3.197 -0.537 1.809 -0.352 c -0.806 -1.417 -2.181 -2.47 -3.826 -2.871 z m -6.859 2.74 c -0.732 1.377 -0.908 3.01 -0.428 4.537 l 4.135 -0.676 -0.652 -0.793 -3.055 -3.068 z m 11.11 1.627 -3.807 0.639 3.182 3.779 c 0.768 -1.324 1.01 -2.908 0.625 -4.418 z m -4.236 2.459 -1.816 4.334 -0.205 0.508 c 1.698 0.073 3.373 -0.574 4.588 -1.795 l -2.566 -3.047 z m -2.098 1.121 -4.715 0.77 c 0.763 1.194 1.94 2.098 3.334 2.523 l 1.381 -3.293 z" transform="matrix(2.4970249,0,0,2.4976141,-15.947859,-15.944531)" style="fill:#fff;stroke:none;fill-rule:nonzero"/>
   </g>
  </g>
 </g>
</svg>
